X: 12
T: Drag Her Round The Road
R: reel
M: 4/4
L: 1/8
K: Amin
cd|eAAG A2GA|cAGA c3d|eAAG A2GA|cdec d2 cd|
eAAG A2 GA|cAGA c3d|eAAG A2GA|cdec d4||
|c3B cege|fede fgag|e3d cega|gece dcAG|
c3B cege|fede fgab|c'age f2 c'a| gece d4||


Tune 1148	Setting 14414

